lib/icons-source/quote.svg

<svg width="23" height="21" viewBox="0 0 23 21" fill="none" xmlns="http://www.w3.org/2000/svg">
<g clip-path="url(#clip0_9_31)">
<rect width="23" height="21" fill="white"/>
<path d="M7.18732 21C7.07853 21 6.9678 20.9745 6.86041 20.9209C6.39838 20.69 6.17009 20.0246 6.35065 19.4343L8.21895 13.3289C8.60763 12.0583 8.80469 10.7228 8.80469 9.35876V4.59007C8.80469 3.32466 7.99855 2.29503 7.00781 2.29503H3.59375C2.60301 2.29503 1.79688 3.32466 1.79688 4.59007V8.95063C1.79688 10.216 2.60301 11.2457 3.59375 11.2457H5.48047C5.97672 11.2457 6.37891 11.7594 6.37891 12.3932C6.37891 13.027 5.97672 13.5407 5.48047 13.5407H3.59375C1.6121 13.5407 0 11.4817 0 8.95063V4.59007C0 2.05903 1.6121 0 3.59375 0H7.00781C8.98946 0 10.6016 2.05903 10.6016 4.59007V9.35876C10.6016 11.0097 10.3629 12.6265 9.89246 14.1642L8.02435 20.2698C7.88572 20.7228 7.54635 21 7.18732 21ZM20.4228 20.2698L22.2909 14.1642C22.7614 12.6265 23 11.0097 23 9.35876V4.59007C23 2.05903 21.3879 0 19.4062 0H15.9922C14.0105 0 12.3984 2.05903 12.3984 4.59007V8.95063C12.3984 11.4817 14.0105 13.5407 15.9922 13.5407H17.8789C18.3752 13.5407 18.7773 13.027 18.7773 12.3932C18.7773 11.7594 18.3752 11.2457 17.8789 11.2457H15.9922C15.0014 11.2457 14.1953 10.216 14.1953 8.95063V4.59007C14.1953 3.32466 15.0014 2.29503 15.9922 2.29503H19.4062C20.397 2.29503 21.2031 3.32466 21.2031 4.59007V9.35876C21.2031 10.7226 21.0061 12.0583 20.6174 13.3289L18.7491 19.4343C18.5685 20.0246 18.7968 20.69 19.2589 20.9209C19.3664 20.9745 19.477 20.9998 19.5858 20.9998C19.9448 21 20.2842 20.7228 20.4228 20.2698Z" fill="black"/>
</g>
<defs>
<clipPath id="clip0_9_31">
<rect width="23" height="21" fill="white"/>
</clipPath>
</defs>
</svg>

<svg viewBox="0 0 23 21" fill="none" xmlns="http://www.w3.org/2000/svg"><rect fill="white"/><path d="M7.187 21a.7.7 0 0 1-.327-.08c-.462-.23-.69-.895-.51-1.486l1.87-6.104c.389-1.27.586-2.606.586-3.97V4.59c0-1.265-.806-2.295-1.797-2.295H3.594c-.991 0-1.797 1.03-1.797 2.295v4.36c0 1.266.806 2.296 1.797 2.296H5.48c.497 0 .899.513.899 1.147s-.402 1.148-.899 1.148H3.594C1.612 13.54 0 11.48 0 8.95V4.59C0 2.058 1.612 0 3.594 0h3.414c1.981 0 3.594 2.059 3.594 4.59v4.77c0 1.65-.24 3.268-.71 4.805L8.024 20.27c-.138.453-.478.73-.837.73m13.236-.73 1.868-6.106c.47-1.537.709-3.154.709-4.805V4.59C23 2.06 21.388 0 19.406 0h-3.414c-1.982 0-3.594 2.059-3.594 4.59v4.36c0 2.532 1.613 4.59 3.594 4.59h1.887c.496 0 .898-.513.898-1.147s-.402-1.147-.898-1.147h-1.887c-.99 0-1.797-1.03-1.797-2.295V4.59c0-1.266.806-2.296 1.797-2.296h3.414c.991 0 1.797 1.03 1.797 2.295V9.36c0 1.364-.197 2.7-.586 3.97l-1.868 6.105c-.18.59.048 1.256.51 1.487a.7.7 0 0 0 .327.079c.359 0 .698-.277.837-.73" fill="black"/></svg>
